X:592
T:Bob Hitchcock's Primitive Reel
S:Bruce & Emmett's Drummers and Fifers Guide (1862), p. 59
M:2/4
L:1/16
Q:1/4=90
K:D
%%MIDI program 72
%%MIDI transpose 8
%%MIDI ratio 3 1
C2|EA^GB A2e=g|faec dcBA|G2EF G2EF|GBAG FDEC|EA^GB A2e=g|
faec dcBA|G2EF GEBA|F2D2D2::de|(Tf3e) defg|afge dcBA|
(Tf3e) defg|afdf a2ef|gaba gfec|dfec dcBA|G2EF GEBA|F2D2D2:|
